components/AppDevelopmentCommon/Svg/svgs/titledDynamoDB.svg

<svg width="180" height="145" viewBox="0 0 180 145" fill="none" xmlns="http://www.w3.org/2000/svg">
<path d="M101.936 91.8411H103.059L121.401 82.7258L121.706 82.297V9.53871L121.401 9.10768L103.059 0H101.922L101.936 91.8411Z" fill="#898989"/>
<path d="M78.0647 91.8411H76.9253L58.5996 82.7258L58.2277 82.0901L58.0391 9.90926L58.5996 9.10768L76.9253 0H78.0788L78.0647 91.8411Z" fill="#727272"/>
<path d="M76.957 0H103.039V91.8411H76.957V0Z" fill="#808080"/>
<path d="M131 43.8574L130.38 43.7208L121.531 42.9008L121.399 42.9657L103.042 42.2361H76.9585L58.6004 42.9657V29.053L58.5812 29.0632L58.6004 29.0224L76.9585 24.7949H103.042L121.399 29.0224L128.148 32.5875V30.2955L131 29.9854L130.705 29.413L121.674 22.9957L121.399 23.0845L103.042 17.4311H76.9585L58.6004 23.0845V9.10779L49 20.2856V30.0478L49.0743 29.9943L51.8521 30.2955V32.6346L49 34.1515V43.865L49.0743 43.8574L51.8521 43.8981V47.9751L49.4555 48.0107L49 47.9674V57.6847L51.8521 59.209V61.5752L49.1195 61.875L49 61.7859V71.5465L58.6004 82.7259V68.7505L76.9585 74.4039H103.042L121.453 68.734L121.698 68.8406L130.61 62.5178L131 61.8878L128.148 61.5752V59.2564L127.774 59.108L121.674 62.3758L121.453 62.8342L103.042 67.0372V67.0423H76.9585V67.0372L58.6004 62.8164V48.8527L76.9585 49.5798V49.5977H103.042L121.399 48.8527L121.817 49.0438L130.395 48.3097L131 48.0158L128.148 47.9751V43.8981L131 43.8574Z" fill="#6A6A6A"/>
<path d="M121.398 68.7503V82.7257L130.999 71.5463V61.8494L121.454 68.7338L121.398 68.7503Z" fill="#808080"/>
<path d="M121.398 62.8468L121.454 62.8341L130.999 57.7318V47.975L121.398 48.8526V62.8468Z" fill="#808080"/>
<path d="M121.454 29.0351L121.398 29.0223V42.9656L130.999 43.8573V34.1053L121.454 29.0351Z" fill="#808080"/>
<path d="M121.454 23.1392L130.999 29.9854V20.2882L121.398 9.10779V23.0845L121.454 23.1036V23.1392Z" fill="#808080"/>
<path d="M8.802 132.21H3.33L2.322 135H0.594L5.13 122.526H7.02L11.538 135H9.81L8.802 132.21ZM8.334 130.878L6.066 124.542L3.798 130.878H8.334ZM25.3769 124.956C26.1449 124.956 26.8289 125.118 27.4289 125.442C28.0289 125.754 28.5029 126.228 28.8509 126.864C29.1989 127.5 29.3729 128.274 29.3729 129.186V135H27.7529V129.42C27.7529 128.436 27.5069 127.686 27.0149 127.17C26.5349 126.642 25.8809 126.378 25.0529 126.378C24.2009 126.378 23.5229 126.654 23.0189 127.206C22.5149 127.746 22.2629 128.532 22.2629 129.564V135H20.6429V129.42C20.6429 128.436 20.3969 127.686 19.9049 127.17C19.4249 126.642 18.7709 126.378 17.9429 126.378C17.0909 126.378 16.4129 126.654 15.9089 127.206C15.4049 127.746 15.1529 128.532 15.1529 129.564V135H13.5149V125.136H15.1529V126.558C15.4769 126.042 15.9089 125.646 16.4489 125.37C17.0009 125.094 17.6069 124.956 18.2669 124.956C19.0949 124.956 19.8269 125.142 20.4629 125.514C21.0989 125.886 21.5729 126.432 21.8849 127.152C22.1609 126.456 22.6169 125.916 23.2529 125.532C23.8889 125.148 24.5969 124.956 25.3769 124.956ZM31.4478 130.032C31.4478 129.024 31.6518 128.142 32.0598 127.386C32.4678 126.618 33.0258 126.024 33.7338 125.604C34.4538 125.184 35.2518 124.974 36.1278 124.974C36.9918 124.974 37.7418 125.16 38.3778 125.532C39.0138 125.904 39.4878 126.372 39.7998 126.936V125.136H41.4558V135H39.7998V133.164C39.4758 133.74 38.9898 134.22 38.3418 134.604C37.7058 134.976 36.9618 135.162 36.1098 135.162C35.2338 135.162 34.4418 134.946 33.7338 134.514C33.0258 134.082 32.4678 133.476 32.0598 132.696C31.6518 131.916 31.4478 131.028 31.4478 130.032ZM39.7998 130.05C39.7998 129.306 39.6498 128.658 39.3498 128.106C39.0498 127.554 38.6418 127.134 38.1258 126.846C37.6218 126.546 37.0638 126.396 36.4518 126.396C35.8398 126.396 35.2818 126.54 34.7778 126.828C34.2738 127.116 33.8718 127.536 33.5718 128.088C33.2718 128.64 33.1218 129.288 33.1218 130.032C33.1218 130.788 33.2718 131.448 33.5718 132.012C33.8718 132.564 34.2738 132.99 34.7778 133.29C35.2818 133.578 35.8398 133.722 36.4518 133.722C37.0638 133.722 37.6218 133.578 38.1258 133.29C38.6418 132.99 39.0498 132.564 39.3498 132.012C39.6498 131.448 39.7998 130.794 39.7998 130.05ZM45.4479 133.65H50.2899V135H43.5759V133.65L48.3639 126.468H43.6119V125.136H50.2539V126.468L45.4479 133.65ZM56.7173 135.162C55.7933 135.162 54.9533 134.952 54.1973 134.532C53.4533 134.112 52.8653 133.518 52.4333 132.75C52.0133 131.97 51.8033 131.07 51.8033 130.05C51.8033 129.042 52.0193 128.154 52.4513 127.386C52.8953 126.606 53.4953 126.012 54.2513 125.604C55.0073 125.184 55.8533 124.974 56.7893 124.974C57.7253 124.974 58.5713 125.184 59.3273 125.604C60.0833 126.012 60.6773 126.6 61.1093 127.368C61.5533 128.136 61.7753 129.03 61.7753 130.05C61.7753 131.07 61.5473 131.97 61.0913 132.75C60.6473 133.518 60.0413 134.112 59.2733 134.532C58.5053 134.952 57.6533 135.162 56.7173 135.162ZM56.7173 133.722C57.3053 133.722 57.8573 133.584 58.3733 133.308C58.8893 133.032 59.3033 132.618 59.6153 132.066C59.9393 131.514 60.1013 130.842 60.1013 130.05C60.1013 129.258 59.9453 128.586 59.6333 128.034C59.3213 127.482 58.9133 127.074 58.4093 126.81C57.9053 126.534 57.3593 126.396 56.7713 126.396C56.1713 126.396 55.6193 126.534 55.1153 126.81C54.6233 127.074 54.2273 127.482 53.9273 128.034C53.6273 128.586 53.4773 129.258 53.4773 130.05C53.4773 130.854 53.6213 131.532 53.9093 132.084C54.2093 132.636 54.6053 133.05 55.0973 133.326C55.5893 133.59 56.1293 133.722 56.7173 133.722ZM68.735 124.956C69.935 124.956 70.907 125.322 71.651 126.054C72.395 126.774 72.767 127.818 72.767 129.186V135H71.147V129.42C71.147 128.436 70.901 127.686 70.409 127.17C69.917 126.642 69.245 126.378 68.393 126.378C67.529 126.378 66.839 126.648 66.323 127.188C65.819 127.728 65.567 128.514 65.567 129.546V135H63.929V125.136H65.567V126.54C65.891 126.036 66.329 125.646 66.881 125.37C67.445 125.094 68.063 124.956 68.735 124.956ZM84.1475 122.454C85.5155 122.454 86.6975 122.712 87.6935 123.228C88.7015 123.732 89.4695 124.458 89.9975 125.406C90.5375 126.354 90.8075 127.47 90.8075 128.754C90.8075 130.038 90.5375 131.154 89.9975 132.102C89.4695 133.038 88.7015 133.758 87.6935 134.262C86.6975 134.754 85.5155 135 84.1475 135H80.2415V122.454H84.1475ZM84.1475 133.65C85.7675 133.65 87.0035 133.224 87.8555 132.372C88.7075 131.508 89.1335 130.302 89.1335 128.754C89.1335 127.194 88.7015 125.976 87.8375 125.1C86.9855 124.224 85.7555 123.786 84.1475 123.786H81.8795V133.65H84.1475ZM101.464 125.136L95.524 139.644H93.832L95.776 134.892L91.798 125.136H93.616L96.712 133.128L99.772 125.136H101.464ZM107.917 124.956C109.117 124.956 110.089 125.322 110.833 126.054C111.577 126.774 111.949 127.818 111.949 129.186V135H110.329V129.42C110.329 128.436 110.083 127.686 109.591 127.17C109.099 126.642 108.427 126.378 107.575 126.378C106.711 126.378 106.021 126.648 105.505 127.188C105.001 127.728 104.749 128.514 104.749 129.546V135H103.111V125.136H104.749V126.54C105.073 126.036 105.511 125.646 106.063 125.37C106.627 125.094 107.245 124.956 107.917 124.956ZM114.012 130.032C114.012 129.024 114.216 128.142 114.624 127.386C115.032 126.618 115.59 126.024 116.298 125.604C117.018 125.184 117.816 124.974 118.692 124.974C119.556 124.974 120.306 125.16 120.942 125.532C121.578 125.904 122.052 126.372 122.364 126.936V125.136H124.02V135H122.364V133.164C122.04 133.74 121.554 134.22 120.906 134.604C120.27 134.976 119.526 135.162 118.674 135.162C117.798 135.162 117.006 134.946 116.298 134.514C115.59 134.082 115.032 133.476 114.624 132.696C114.216 131.916 114.012 131.028 114.012 130.032ZM122.364 130.05C122.364 129.306 122.214 128.658 121.914 128.106C121.614 127.554 121.206 127.134 120.69 126.846C120.186 126.546 119.628 126.396 119.016 126.396C118.404 126.396 117.846 126.54 117.342 126.828C116.838 127.116 116.436 127.536 116.136 128.088C115.836 128.64 115.686 129.288 115.686 130.032C115.686 130.788 115.836 131.448 116.136 132.012C116.436 132.564 116.838 132.99 117.342 133.29C117.846 133.578 118.404 133.722 119.016 133.722C119.628 133.722 120.186 133.578 120.69 133.29C121.206 132.99 121.614 132.564 121.914 132.012C122.214 131.448 122.364 130.794 122.364 130.05ZM138.65 124.956C139.418 124.956 140.102 125.118 140.702 125.442C141.302 125.754 141.776 126.228 142.124 126.864C142.472 127.5 142.646 128.274 142.646 129.186V135H141.026V129.42C141.026 128.436 140.78 127.686 140.288 127.17C139.808 126.642 139.154 126.378 138.326 126.378C137.474 126.378 136.796 126.654 136.292 127.206C135.788 127.746 135.536 128.532 135.536 129.564V135H133.916V129.42C133.916 128.436 133.67 127.686 133.178 127.17C132.698 126.642 132.044 126.378 131.216 126.378C130.364 126.378 129.686 126.654 129.182 127.206C128.678 127.746 128.426 128.532 128.426 129.564V135H126.788V125.136H128.426V126.558C128.75 126.042 129.182 125.646 129.722 125.37C130.274 125.094 130.88 124.956 131.54 124.956C132.368 124.956 133.1 125.142 133.736 125.514C134.372 125.886 134.846 126.432 135.158 127.152C135.434 126.456 135.89 125.916 136.526 125.532C137.162 125.148 137.87 124.956 138.65 124.956ZM149.635 135.162C148.711 135.162 147.871 134.952 147.115 134.532C146.371 134.112 145.783 133.518 145.351 132.75C144.931 131.97 144.721 131.07 144.721 130.05C144.721 129.042 144.937 128.154 145.369 127.386C145.813 126.606 146.413 126.012 147.169 125.604C147.925 125.184 148.771 124.974 149.707 124.974C150.643 124.974 151.489 125.184 152.245 125.604C153.001 126.012 153.595 126.6 154.027 127.368C154.471 128.136 154.693 129.03 154.693 130.05C154.693 131.07 154.465 131.97 154.009 132.75C153.565 133.518 152.959 134.112 152.191 134.532C151.423 134.952 150.571 135.162 149.635 135.162ZM149.635 133.722C150.223 133.722 150.775 133.584 151.291 133.308C151.807 133.032 152.221 132.618 152.533 132.066C152.857 131.514 153.019 130.842 153.019 130.05C153.019 129.258 152.863 128.586 152.551 128.034C152.239 127.482 151.831 127.074 151.327 126.81C150.823 126.534 150.277 126.396 149.689 126.396C149.089 126.396 148.537 126.534 148.033 126.81C147.541 127.074 147.145 127.482 146.845 128.034C146.545 128.586 146.395 129.258 146.395 130.05C146.395 130.854 146.539 131.532 146.827 132.084C147.127 132.636 147.523 133.05 148.015 133.326C148.507 133.59 149.047 133.722 149.635 133.722ZM160.753 122.454C162.121 122.454 163.303 122.712 164.299 123.228C165.307 123.732 166.075 124.458 166.603 125.406C167.143 126.354 167.413 127.47 167.413 128.754C167.413 130.038 167.143 131.154 166.603 132.102C166.075 133.038 165.307 133.758 164.299 134.262C163.303 134.754 162.121 135 160.753 135H156.847V122.454H160.753ZM160.753 133.65C162.373 133.65 163.609 133.224 164.461 132.372C165.313 131.508 165.739 130.302 165.739 128.754C165.739 127.194 165.307 125.976 164.443 125.1C163.591 124.224 162.361 123.786 160.753 123.786H158.485V133.65H160.753ZM175.856 128.538C176.312 128.61 176.726 128.796 177.098 129.096C177.482 129.396 177.782 129.768 177.998 130.212C178.226 130.656 178.34 131.13 178.34 131.634C178.34 132.27 178.178 132.846 177.854 133.362C177.53 133.866 177.056 134.268 176.432 134.568C175.82 134.856 175.094 135 174.254 135H169.574V122.454H174.074C174.926 122.454 175.652 122.598 176.252 122.886C176.852 123.162 177.302 123.54 177.602 124.02C177.902 124.5 178.052 125.04 178.052 125.64C178.052 126.384 177.848 127.002 177.439 127.494C177.044 127.974 176.516 128.322 175.856 128.538ZM171.212 127.872H173.966C174.734 127.872 175.328 127.692 175.748 127.332C176.168 126.972 176.378 126.474 176.378 125.838C176.378 125.202 176.168 124.704 175.748 124.344C175.328 123.984 174.722 123.804 173.93 123.804H171.212V127.872ZM174.11 133.65C174.926 133.65 175.562 133.458 176.018 133.074C176.474 132.69 176.702 132.156 176.702 131.472C176.702 130.776 176.462 130.23 175.982 129.834C175.502 129.426 174.86 129.222 174.056 129.222H171.212V133.65H174.11Z" fill="#A0A0A0"/>
</svg>

<svg xmlns="http://www.w3.org/2000/svg" width="180" height="145" fill="none">
  <path fill="#898989" d="M101.936 91.841h1.123l18.342-9.115.305-.429V9.539l-.305-.431L103.059 0h-1.137l.014 91.841Z" />
  <path fill="#727272" d="M78.065 91.841h-1.14L58.6 82.726l-.372-.636-.189-72.18.56-.802L76.926 0h1.154l-.014 91.841Z" />
  <path fill="gray" d="M76.957 0h26.082v91.841H76.957V0Z" />
  <path fill="#6A6A6A" d="m131 43.857-.62-.136-8.849-.82-.132.065-18.357-.73H76.958l-18.358.73V29.053l-.019.01.02-.04 18.358-4.228h26.083l18.357 4.227 6.749 3.566v-2.293l2.852-.31-.295-.572-9.031-6.417-.275.088-18.357-5.653H76.958L58.6 23.084V9.108L49 20.286v9.762l.074-.054 2.778.302v2.339L49 34.152v9.713l.074-.008 2.778.041v4.077l-2.396.036-.456-.044v9.718l2.852 1.524v2.366l-2.732.3-.12-.09v9.761l9.6 11.18V68.75l18.358 5.653h26.084l18.411-5.67.245.107 8.912-6.323.39-.63-2.852-.313v-2.319l-.374-.148-6.1 3.268-.221.458-18.411 4.203v.005H76.958v-.005L58.6 62.817V48.852l18.358.727v.018h26.084l18.357-.745.418.19 8.578-.733.605-.294-2.852-.04v-4.078l2.852-.04Z" />
  <path fill="gray" d="M121.398 68.75v13.976l9.601-11.18V61.85l-9.545 6.885-.056.016ZM121.398 62.847l.056-.013 9.545-5.102v-9.757l-9.601.878v13.994ZM121.454 29.035l-.056-.013v13.944l9.601.891v-9.752l-9.545-5.07ZM121.454 23.14l9.545 6.845v-9.697l-9.601-11.18v13.976l.056.02v.035Z" />
  <path fill="#A0A0A0" d="M8.802 132.21H3.33L2.322 135H.594l4.536-12.474h1.89L11.538 135H9.81l-1.008-2.79Zm-.468-1.332-2.268-6.336-2.268 6.336h4.536Zm17.043-5.922c.768 0 1.452.162 2.052.486.6.312 1.074.786 1.422 1.422.348.636.522 1.41.522 2.322V135h-1.62v-5.58c0-.984-.246-1.734-.738-2.25-.48-.528-1.134-.792-1.962-.792-.852 0-1.53.276-2.034.828-.504.54-.756 1.326-.756 2.358V135h-1.62v-5.58c0-.984-.246-1.734-.738-2.25-.48-.528-1.134-.792-1.962-.792-.852 0-1.53.276-2.034.828-.504.54-.756 1.326-.756 2.358V135h-1.638v-9.864h1.638v1.422a3.252 3.252 0 0 1 1.296-1.188 4.008 4.008 0 0 1 1.818-.414c.828 0 1.56.186 2.196.558.636.372 1.11.918 1.422 1.638a3.235 3.235 0 0 1 1.368-1.62 4.03 4.03 0 0 1 2.124-.576Zm6.07 5.076c0-1.008.205-1.89.613-2.646a4.446 4.446 0 0 1 1.674-1.782c.72-.42 1.518-.63 2.394-.63.864 0 1.614.186 2.25.558.636.372 1.11.84 1.422 1.404v-1.8h1.656V135H39.8v-1.836c-.324.576-.81 1.056-1.458 1.44-.636.372-1.38.558-2.232.558-.876 0-1.668-.216-2.376-.648-.708-.432-1.266-1.038-1.674-1.818-.408-.78-.612-1.668-.612-2.664Zm8.353.018c0-.744-.15-1.392-.45-1.944a3.098 3.098 0 0 0-1.224-1.26 3.211 3.211 0 0 0-1.674-.45c-.612 0-1.17.144-1.674.432a3.134 3.134 0 0 0-1.206 1.26c-.3.552-.45 1.2-.45 1.944 0 .756.15 1.416.45 1.98.3.552.702.978 1.206 1.278a3.314 3.314 0 0 0 1.674.432c.612 0 1.17-.144 1.674-.432.516-.3.924-.726 1.224-1.278.3-.564.45-1.218.45-1.962Zm5.648 3.6h4.842V135h-6.714v-1.35l4.788-7.182h-4.752v-1.332h6.642v1.332l-4.806 7.182Zm11.27 1.512c-.925 0-1.765-.21-2.52-.63a4.58 4.58 0 0 1-1.765-1.782c-.42-.78-.63-1.68-.63-2.7 0-1.008.216-1.896.648-2.664a4.51 4.51 0 0 1 1.8-1.782c.756-.42 1.602-.63 2.538-.63.936 0 1.782.21 2.538.63.756.408 1.35.996 1.782 1.764.444.768.666 1.662.666 2.682s-.228 1.92-.684 2.7a4.634 4.634 0 0 1-1.818 1.782c-.768.42-1.62.63-2.556.63Zm0-1.44c.587 0 1.14-.138 1.655-.414.516-.276.93-.69 1.242-1.242.324-.552.486-1.224.486-2.016s-.156-1.464-.468-2.016c-.312-.552-.72-.96-1.224-1.224a3.356 3.356 0 0 0-1.638-.414c-.6 0-1.152.138-1.656.414-.492.264-.888.672-1.188 1.224-.3.552-.45 1.224-.45 2.016 0 .804.144 1.482.432 2.034.3.552.696.966 1.188 1.242a3.372 3.372 0 0 0 1.62.396Zm12.017-8.766c1.2 0 2.172.366 2.916 1.098.744.72 1.116 1.764 1.116 3.132V135h-1.62v-5.58c0-.984-.246-1.734-.738-2.25-.492-.528-1.164-.792-2.016-.792-.864 0-1.554.27-2.07.81-.504.54-.756 1.326-.756 2.358V135h-1.638v-9.864h1.638v1.404a3.266 3.266 0 0 1 1.314-1.17 4.16 4.16 0 0 1 1.854-.414Zm15.412-2.502c1.368 0 2.55.258 3.546.774 1.008.504 1.776 1.23 2.305 2.178.54.948.81 2.064.81 3.348 0 1.284-.27 2.4-.81 3.348-.529.936-1.297 1.656-2.305 2.16-.995.492-2.177.738-3.546.738h-3.906v-12.546h3.906Zm0 11.196c1.62 0 2.856-.426 3.709-1.278.852-.864 1.278-2.07 1.278-3.618 0-1.56-.433-2.778-1.296-3.654-.852-.876-2.082-1.314-3.69-1.314h-2.269v9.864h2.268Zm17.317-8.514-5.94 14.508h-1.692l1.944-4.752-3.978-9.756h1.818l3.096 7.992 3.06-7.992h1.692Zm6.453-.18c1.2 0 2.172.366 2.916 1.098.744.72 1.116 1.764 1.116 3.132V135h-1.62v-5.58c0-.984-.246-1.734-.738-2.25-.492-.528-1.164-.792-2.016-.792-.864 0-1.554.27-2.07.81-.504.54-.756 1.326-.756 2.358V135h-1.638v-9.864h1.638v1.404a3.266 3.266 0 0 1 1.314-1.17 4.16 4.16 0 0 1 1.854-.414Zm6.095 5.076c0-1.008.204-1.89.612-2.646a4.446 4.446 0 0 1 1.674-1.782c.72-.42 1.518-.63 2.394-.63.864 0 1.614.186 2.25.558.636.372 1.11.84 1.422 1.404v-1.8h1.656V135h-1.656v-1.836c-.324.576-.81 1.056-1.458 1.44-.636.372-1.38.558-2.232.558-.876 0-1.668-.216-2.376-.648-.708-.432-1.266-1.038-1.674-1.818-.408-.78-.612-1.668-.612-2.664Zm8.352.018c0-.744-.15-1.392-.45-1.944a3.098 3.098 0 0 0-1.224-1.26 3.211 3.211 0 0 0-1.674-.45c-.612 0-1.17.144-1.674.432a3.134 3.134 0 0 0-1.206 1.26c-.3.552-.45 1.2-.45 1.944 0 .756.15 1.416.45 1.98.3.552.702.978 1.206 1.278a3.314 3.314 0 0 0 1.674.432c.612 0 1.17-.144 1.674-.432.516-.3.924-.726 1.224-1.278.3-.564.45-1.218.45-1.962Zm16.286-5.094c.768 0 1.452.162 2.052.486.6.312 1.074.786 1.422 1.422.348.636.522 1.41.522 2.322V135h-1.62v-5.58c0-.984-.246-1.734-.738-2.25-.48-.528-1.134-.792-1.962-.792-.852 0-1.53.276-2.034.828-.504.54-.756 1.326-.756 2.358V135h-1.62v-5.58c0-.984-.246-1.734-.738-2.25-.48-.528-1.134-.792-1.962-.792-.852 0-1.53.276-2.034.828-.504.54-.756 1.326-.756 2.358V135h-1.638v-9.864h1.638v1.422a3.252 3.252 0 0 1 1.296-1.188 4.008 4.008 0 0 1 1.818-.414c.828 0 1.56.186 2.196.558.636.372 1.11.918 1.422 1.638a3.235 3.235 0 0 1 1.368-1.62 4.03 4.03 0 0 1 2.124-.576Zm10.985 10.206c-.924 0-1.764-.21-2.52-.63a4.58 4.58 0 0 1-1.764-1.782c-.42-.78-.63-1.68-.63-2.7 0-1.008.216-1.896.648-2.664a4.51 4.51 0 0 1 1.8-1.782c.756-.42 1.602-.63 2.538-.63.936 0 1.782.21 2.538.63.756.408 1.35.996 1.782 1.764.444.768.666 1.662.666 2.682s-.228 1.92-.684 2.7a4.634 4.634 0 0 1-1.818 1.782c-.768.42-1.62.63-2.556.63Zm0-1.44c.588 0 1.14-.138 1.656-.414.516-.276.93-.69 1.242-1.242.324-.552.486-1.224.486-2.016s-.156-1.464-.468-2.016c-.312-.552-.72-.96-1.224-1.224a3.356 3.356 0 0 0-1.638-.414c-.6 0-1.152.138-1.656.414-.492.264-.888.672-1.188 1.224-.3.552-.45 1.224-.45 2.016 0 .804.144 1.482.432 2.034.3.552.696.966 1.188 1.242a3.372 3.372 0 0 0 1.62.396Zm11.118-11.268c1.368 0 2.55.258 3.546.774 1.008.504 1.776 1.23 2.304 2.178.54.948.81 2.064.81 3.348 0 1.284-.27 2.4-.81 3.348-.528.936-1.296 1.656-2.304 2.16-.996.492-2.178.738-3.546.738h-3.906v-12.546h3.906Zm0 11.196c1.62 0 2.856-.426 3.708-1.278.852-.864 1.278-2.07 1.278-3.618 0-1.56-.432-2.778-1.296-3.654-.852-.876-2.082-1.314-3.69-1.314h-2.268v9.864h2.268Zm15.103-5.112c.456.072.87.258 1.242.558.384.3.684.672.9 1.116.228.444.342.918.342 1.422 0 .636-.162 1.212-.486 1.728-.324.504-.798.906-1.422 1.206-.612.288-1.338.432-2.178.432h-4.68v-12.546h4.5c.852 0 1.578.144 2.178.432.6.276 1.05.654 1.35 1.134.3.48.45 1.02.45 1.62 0 .744-.204 1.362-.613 1.854-.395.48-.923.828-1.583 1.044Zm-4.644-.666h2.754c.768 0 1.362-.18 1.782-.54.42-.36.63-.858.63-1.494s-.21-1.134-.63-1.494c-.42-.36-1.026-.54-1.818-.54h-2.718v4.068Zm2.898 5.778c.816 0 1.452-.192 1.908-.576.456-.384.684-.918.684-1.602 0-.696-.24-1.242-.72-1.638-.48-.408-1.122-.612-1.926-.612h-2.844v4.428h2.898Z" />
</svg>
